algorithms/memory-management/first-fit/empty-memory.svg

<svg width="1367" height="229" viewBox="0 0 1367 229" fill="none" xmlns="http://www.w3.org/2000/svg">
<rect x="1" y="78" width="1365" height="150" rx="27" stroke="#DBDBDB" stroke-width="2"/>
<path d="M598.581 168V163.568L608.936 153.98C609.816 153.128 610.555 152.361 611.152 151.679C611.758 150.997 612.217 150.33 612.529 149.676C612.842 149.013 612.998 148.298 612.998 147.531C612.998 146.679 612.804 145.945 612.416 145.33C612.028 144.705 611.497 144.226 610.825 143.895C610.153 143.554 609.39 143.384 608.538 143.384C607.648 143.384 606.871 143.563 606.208 143.923C605.546 144.283 605.034 144.799 604.674 145.472C604.315 146.144 604.135 146.944 604.135 147.872H598.297C598.297 145.969 598.727 144.316 599.589 142.915C600.451 141.513 601.658 140.429 603.211 139.662C604.764 138.895 606.554 138.511 608.581 138.511C610.664 138.511 612.477 138.881 614.021 139.619C615.574 140.348 616.781 141.362 617.643 142.659C618.505 143.956 618.936 145.443 618.936 147.119C618.936 148.218 618.718 149.302 618.282 150.372C617.856 151.442 617.094 152.631 615.995 153.938C614.897 155.235 613.349 156.793 611.35 158.611L607.103 162.773V162.972H619.319V168H598.581ZM635.182 168.639C632.739 168.63 630.637 168.028 628.875 166.835C627.123 165.642 625.774 163.914 624.827 161.651C623.89 159.387 623.426 156.665 623.435 153.483C623.435 150.311 623.904 147.607 624.841 145.372C625.788 143.137 627.138 141.437 628.89 140.273C630.651 139.098 632.748 138.511 635.182 138.511C637.616 138.511 639.709 139.098 641.461 140.273C643.222 141.447 644.576 143.152 645.523 145.386C646.47 147.612 646.939 150.311 646.929 153.483C646.929 156.674 646.456 159.402 645.509 161.665C644.571 163.928 643.227 165.656 641.475 166.849C639.723 168.043 637.625 168.639 635.182 168.639ZM635.182 163.54C636.849 163.54 638.179 162.702 639.174 161.026C640.168 159.349 640.66 156.835 640.651 153.483C640.651 151.277 640.424 149.439 639.969 147.972C639.524 146.504 638.89 145.401 638.066 144.662C637.251 143.923 636.29 143.554 635.182 143.554C633.525 143.554 632.199 144.383 631.205 146.04C630.211 147.697 629.709 150.178 629.699 153.483C629.699 155.718 629.922 157.583 630.367 159.08C630.821 160.566 631.461 161.684 632.284 162.432C633.108 163.17 634.074 163.54 635.182 163.54ZM662.721 168.639C660.278 168.63 658.176 168.028 656.414 166.835C654.663 165.642 653.313 163.914 652.366 161.651C651.429 159.387 650.965 156.665 650.974 153.483C650.974 150.311 651.443 147.607 652.38 145.372C653.327 143.137 654.677 141.437 656.429 140.273C658.19 139.098 660.288 138.511 662.721 138.511C665.155 138.511 667.248 139.098 669 140.273C670.761 141.447 672.115 143.152 673.062 145.386C674.009 147.612 674.478 150.311 674.468 153.483C674.468 156.674 673.995 159.402 673.048 161.665C672.11 163.928 670.766 165.656 669.014 166.849C667.262 168.043 665.164 168.639 662.721 168.639ZM662.721 163.54C664.388 163.54 665.718 162.702 666.713 161.026C667.707 159.349 668.199 156.835 668.19 153.483C668.19 151.277 667.963 149.439 667.508 147.972C667.063 146.504 666.429 145.401 665.605 144.662C664.79 143.923 663.829 143.554 662.721 143.554C661.064 143.554 659.738 144.383 658.744 146.04C657.75 147.697 657.248 150.178 657.238 153.483C657.238 155.718 657.461 157.583 657.906 159.08C658.36 160.566 659 161.684 659.824 162.432C660.647 163.17 661.613 163.54 662.721 163.54ZM688.282 168V138.909H694.433V151.736H694.816L705.285 138.909H712.657L701.862 151.935L712.785 168H705.427L697.458 156.04L694.433 159.733V168H688.282ZM715.86 168V138.909H727.508C729.648 138.909 731.433 139.226 732.863 139.861C734.293 140.495 735.368 141.376 736.088 142.503C736.807 143.62 737.167 144.908 737.167 146.366C737.167 147.503 736.94 148.502 736.485 149.364C736.031 150.216 735.406 150.917 734.61 151.466C733.824 152.006 732.925 152.389 731.912 152.616V152.901C733.02 152.948 734.056 153.26 735.022 153.838C735.998 154.416 736.788 155.225 737.395 156.267C738.001 157.299 738.304 158.53 738.304 159.96C738.304 161.504 737.92 162.882 737.153 164.094C736.395 165.296 735.273 166.248 733.787 166.949C732.3 167.65 730.467 168 728.289 168H715.86ZM722.011 162.972H727.025C728.739 162.972 729.989 162.645 730.775 161.991C731.561 161.329 731.954 160.448 731.954 159.349C731.954 158.545 731.76 157.834 731.372 157.219C730.984 156.603 730.43 156.12 729.71 155.77C729 155.42 728.152 155.244 727.167 155.244H722.011V162.972ZM722.011 151.082H726.571C727.413 151.082 728.162 150.936 728.815 150.642C729.478 150.339 729.999 149.913 730.377 149.364C730.766 148.814 730.96 148.156 730.96 147.389C730.96 146.338 730.586 145.491 729.838 144.847C729.099 144.203 728.048 143.881 726.684 143.881H722.011V151.082Z" fill="white"/>
<path d="M593.366 9.90909H597.571L607.457 34.0568H607.798L617.685 9.90909H621.889V39H618.594V16.8977H618.31L609.219 39H606.037L596.946 16.8977H596.662V39H593.366V9.90909ZM637.646 39.4545C635.543 39.4545 633.73 38.9905 632.205 38.0625C630.69 37.125 629.521 35.8182 628.697 34.142C627.882 32.4564 627.475 30.4962 627.475 28.2614C627.475 26.0265 627.882 24.0568 628.697 22.3523C629.521 20.6383 630.666 19.303 632.134 18.3466C633.612 17.3807 635.335 16.8977 637.305 16.8977C638.441 16.8977 639.563 17.0871 640.671 17.4659C641.779 17.8447 642.788 18.4602 643.697 19.3125C644.606 20.1553 645.33 21.2727 645.87 22.6648C646.41 24.0568 646.68 25.7708 646.68 27.8068V29.2273H629.862V26.3295H643.271C643.271 25.0985 643.024 24 642.532 23.0341C642.049 22.0682 641.358 21.3059 640.458 20.7472C639.568 20.1884 638.517 19.9091 637.305 19.9091C635.969 19.9091 634.814 20.2405 633.839 20.9034C632.873 21.5568 632.129 22.4091 631.609 23.4602C631.088 24.5114 630.827 25.6383 630.827 26.8409V28.7727C630.827 30.4205 631.112 31.8172 631.68 32.9631C632.257 34.0994 633.058 34.9659 634.08 35.5625C635.103 36.1496 636.291 36.4432 637.646 36.4432C638.526 36.4432 639.322 36.3201 640.032 36.0739C640.752 35.8182 641.372 35.4394 641.893 34.9375C642.414 34.4261 642.816 33.7917 643.1 33.0341L646.339 33.9432C645.998 35.0417 645.425 36.0076 644.62 36.8409C643.815 37.6648 642.821 38.3087 641.637 38.7727C640.453 39.2273 639.123 39.4545 637.646 39.4545ZM651.779 39V17.1818H655.018V20.5909H655.302C655.756 19.4261 656.49 18.5218 657.504 17.8778C658.517 17.2244 659.734 16.8977 661.154 16.8977C662.594 16.8977 663.791 17.2244 664.748 17.8778C665.714 18.5218 666.467 19.4261 667.006 20.5909H667.234C667.792 19.464 668.63 18.5691 669.748 17.9062C670.865 17.2339 672.205 16.8977 673.768 16.8977C675.719 16.8977 677.314 17.5085 678.555 18.7301C679.795 19.9422 680.415 21.8314 680.415 24.3977V39H677.063V24.3977C677.063 22.7879 676.623 21.6373 675.742 20.946C674.862 20.2547 673.825 19.9091 672.631 19.9091C671.097 19.9091 669.909 20.3731 669.066 21.3011C668.223 22.2197 667.802 23.3845 667.802 24.7955V39H664.393V24.0568C664.393 22.8163 663.99 21.8172 663.185 21.0597C662.38 20.2926 661.344 19.9091 660.075 19.9091C659.203 19.9091 658.389 20.1411 657.631 20.6051C656.883 21.0691 656.277 21.7131 655.813 22.5369C655.359 23.3513 655.131 24.2936 655.131 25.3636V39H651.779ZM695.408 39.4545C693.439 39.4545 691.71 38.9858 690.224 38.0483C688.746 37.1108 687.591 35.7992 686.758 34.1136C685.934 32.428 685.522 30.4583 685.522 28.2045C685.522 25.9318 685.934 23.9479 686.758 22.2528C687.591 20.5578 688.746 19.2415 690.224 18.304C691.71 17.3665 693.439 16.8977 695.408 16.8977C697.378 16.8977 699.102 17.3665 700.579 18.304C702.066 19.2415 703.221 20.5578 704.045 22.2528C704.878 23.9479 705.295 25.9318 705.295 28.2045C705.295 30.4583 704.878 32.428 704.045 34.1136C703.221 35.7992 702.066 37.1108 700.579 38.0483C699.102 38.9858 697.378 39.4545 695.408 39.4545ZM695.408 36.4432C696.905 36.4432 698.136 36.0597 699.102 35.2926C700.067 34.5256 700.782 33.517 701.246 32.267C701.71 31.017 701.942 29.6629 701.942 28.2045C701.942 26.7462 701.71 25.3873 701.246 24.1278C700.782 22.8684 700.067 21.8504 699.102 21.0739C698.136 20.2973 696.905 19.9091 695.408 19.9091C693.912 19.9091 692.681 20.2973 691.715 21.0739C690.749 21.8504 690.034 22.8684 689.57 24.1278C689.106 25.3873 688.874 26.7462 688.874 28.2045C688.874 29.6629 689.106 31.017 689.57 32.267C690.034 33.517 690.749 34.5256 691.715 35.2926C692.681 36.0597 693.912 36.4432 695.408 36.4432ZM710.412 39V17.1818H713.651V20.4773H713.878C714.276 19.3977 714.995 18.5218 716.037 17.8494C717.079 17.1771 718.253 16.8409 719.56 16.8409C719.806 16.8409 720.114 16.8456 720.483 16.8551C720.852 16.8646 721.132 16.8788 721.321 16.8977V20.3068C721.207 20.2784 720.947 20.2358 720.54 20.179C720.142 20.1127 719.721 20.0795 719.276 20.0795C718.215 20.0795 717.268 20.3021 716.435 20.7472C715.611 21.1828 714.957 21.7888 714.474 22.5653C714.001 23.3324 713.764 24.2083 713.764 25.1932V39H710.412ZM728.118 47.1818C727.55 47.1818 727.043 47.1345 726.598 47.0398C726.153 46.9545 725.845 46.8693 725.675 46.7841L726.527 43.8295C727.341 44.0379 728.061 44.1136 728.686 44.0568C729.311 44 729.865 43.7206 730.348 43.2188C730.84 42.7263 731.29 41.9261 731.697 40.8182L732.322 39.1136L724.254 17.1818H727.891L733.913 34.5682H734.141L740.163 17.1818H743.8L734.538 42.1818C734.122 43.3087 733.606 44.2415 732.99 44.9801C732.375 45.7282 731.66 46.2822 730.845 46.642C730.04 47.0019 729.131 47.1818 728.118 47.1818Z" fill="white"/>
</svg>

<svg xmlns="http://www.w3.org/2000/svg" width="1367" height="229" fill="none" viewBox="0 0 1367 229"><rect width="1365" height="150" x="1" y="78" stroke="#dbdbdb" stroke-width="2" rx="27"/><path fill="#fff" d="M598.581 168v-4.432l10.355-9.588a39 39 0 0 0 2.216-2.301q.909-1.023 1.377-2.003a4.96 4.96 0 0 0 .469-2.145q0-1.278-.582-2.201a3.8 3.8 0 0 0-1.591-1.435q-1.008-.511-2.287-.511-1.335 0-2.33.539a3.73 3.73 0 0 0-1.534 1.549q-.539 1.008-.539 2.4h-5.838q0-2.855 1.292-4.957 1.293-2.103 3.622-3.253 2.33-1.15 5.37-1.151 3.124 0 5.44 1.108 2.33 1.094 3.622 3.04 1.293 1.946 1.293 4.46a8.6 8.6 0 0 1-.654 3.253q-.639 1.605-2.287 3.566-1.647 1.946-4.645 4.673l-4.247 4.162v.199h12.216V168zm36.601.639q-3.664-.014-6.307-1.804-2.628-1.79-4.048-5.184-1.405-3.395-1.392-8.168 0-4.758 1.406-8.111 1.42-3.353 4.049-5.099 2.641-1.762 6.292-1.762t6.279 1.762q2.641 1.761 4.062 5.113 1.42 3.339 1.406 8.097 0 4.787-1.42 8.182-1.406 3.395-4.034 5.184t-6.293 1.79m0-5.099q2.5 0 3.992-2.514 1.49-2.515 1.477-7.543 0-3.31-.682-5.511-.667-2.202-1.903-3.31a4.15 4.15 0 0 0-2.884-1.108q-2.486 0-3.977 2.486t-1.506 7.443q0 3.352.668 5.597.682 2.23 1.917 3.352a4.2 4.2 0 0 0 2.898 1.108m27.539 5.099q-3.664-.014-6.307-1.804-2.627-1.79-4.048-5.184-1.406-3.395-1.392-8.168 0-4.758 1.406-8.111 1.42-3.353 4.049-5.099 2.642-1.762 6.292-1.762t6.279 1.762q2.641 1.761 4.062 5.113 1.42 3.339 1.406 8.097 0 4.787-1.42 8.182-1.407 3.395-4.034 5.184-2.628 1.79-6.293 1.79m0-5.099q2.5 0 3.992-2.514 1.49-2.515 1.477-7.543 0-3.31-.682-5.511-.667-2.202-1.903-3.31a4.15 4.15 0 0 0-2.884-1.108q-2.486 0-3.977 2.486t-1.506 7.443q0 3.352.668 5.597.681 2.23 1.918 3.352a4.2 4.2 0 0 0 2.897 1.108m25.561 4.46v-29.091h6.151v12.827h.383l10.469-12.827h7.372l-10.795 13.026L712.785 168h-7.358l-7.969-11.96-3.025 3.693V168zm27.578 0v-29.091h11.648q3.21 0 5.355.952 2.145.951 3.225 2.642 1.079 1.676 1.079 3.863 0 1.705-.682 2.998a5.9 5.9 0 0 1-1.875 2.102q-1.179.81-2.698 1.15v.285a6.5 6.5 0 0 1 3.11.937q1.463.867 2.373 2.429.909 1.548.909 3.693 0 2.316-1.151 4.134-1.137 1.803-3.366 2.855-2.23 1.051-5.498 1.051zm6.151-5.028h5.014q2.571 0 3.75-.981 1.179-.993 1.179-2.642 0-1.207-.582-2.13-.582-.924-1.662-1.449-1.065-.526-2.543-.526h-5.156zm0-11.89h4.56q1.264 0 2.244-.44.995-.455 1.562-1.278.583-.825.583-1.975 0-1.576-1.122-2.542-1.108-.966-3.154-.966h-4.673zM593.366 9.91h4.205l9.886 24.147h.341l9.887-24.148h4.204V39h-3.295V16.898h-.284L609.219 39h-3.182l-9.091-22.102h-.284V39h-3.296zm44.28 29.545q-3.154 0-5.441-1.392-2.272-1.407-3.508-3.921-1.222-2.529-1.222-5.88 0-3.353 1.222-5.91 1.236-2.571 3.437-4.005 2.216-1.45 5.171-1.45 1.704 0 3.366.569 1.662.568 3.026 1.846 1.363 1.264 2.173 3.353.81 2.088.81 5.142v1.42h-16.818V26.33h13.409q0-1.846-.739-3.295a5.56 5.56 0 0 0-2.074-2.287q-1.335-.838-3.153-.838-2.004 0-3.466.994a6.53 6.53 0 0 0-2.23 2.557 7.5 7.5 0 0 0-.782 3.38v1.933q0 2.472.853 4.19.866 1.704 2.4 2.6 1.534.88 3.566.88 1.32 0 2.386-.37a5.1 5.1 0 0 0 1.861-1.136q.781-.766 1.207-1.903l3.239.91a7.2 7.2 0 0 1-1.719 2.897q-1.207 1.236-2.983 1.932-1.776.681-3.991.681M651.779 39V17.182h3.239v3.409h.284q.681-1.748 2.202-2.713 1.52-.98 3.65-.98 2.16 0 3.594.98 1.45.966 2.258 2.713h.228q.837-1.69 2.514-2.685 1.676-1.008 4.02-1.008 2.926 0 4.787 1.832 1.86 1.818 1.86 5.668V39h-3.352V24.398q0-2.414-1.321-3.452t-3.111-1.037q-2.3 0-3.565 1.392-1.264 1.378-1.264 3.495V39h-3.409V24.057q0-1.86-1.208-2.997-1.207-1.15-3.11-1.15-1.308 0-2.444.695-1.122.696-1.818 1.932-.681 1.221-.682 2.827V39zm43.629.455q-2.954 0-5.184-1.407-2.217-1.406-3.466-3.934-1.236-2.529-1.236-5.91 0-3.408 1.236-5.951 1.25-2.543 3.466-3.949 2.23-1.406 5.184-1.406t5.171 1.406q2.23 1.407 3.466 3.949 1.25 2.543 1.25 5.951 0 3.381-1.25 5.91-1.236 2.528-3.466 3.934-2.216 1.407-5.171 1.407m0-3.012q2.245 0 3.694-1.15t2.144-3.026.696-4.063-.696-4.076-2.144-3.054q-1.449-1.165-3.694-1.165t-3.693 1.165-2.145 3.054-.696 4.076.696 4.063 2.145 3.026 3.693 1.15M710.412 39V17.182h3.239v3.295h.227q.596-1.62 2.159-2.628t3.523-1.008q.37 0 .923.014.554.015.838.043v3.409a10 10 0 0 0-.781-.128 7.7 7.7 0 0 0-1.264-.1q-1.592 0-2.841.668a5.04 5.04 0 0 0-1.961 1.818q-.71 1.15-.71 2.628V39zm17.706 8.182a7.4 7.4 0 0 1-1.52-.142q-.668-.127-.923-.256l.852-2.954q1.221.312 2.159.227t1.662-.838q.738-.74 1.349-2.4l.625-1.705-8.068-21.932h3.637l6.022 17.386h.228l6.022-17.386h3.637l-9.262 25q-.624 1.69-1.548 2.798-.923 1.122-2.145 1.662-1.207.54-2.727.54"/></svg>
